X: 695
T: Xiuxian youhu
%%abc-version 2.0
%%abcx-abcm2ps-target-version 5.9.1 (29 Sep 2008)
%%abc-creator hum2abc beta
%%abcx-conversion-date 2013/10/02 07:52:30
%%abc-edited-by Helmut Schaffrath
%%humdrum-veritas 3779728117
%%humdrum-veritas-data 847569616
%%continueall 1
%%barnumbers 0
L: 1/8
M: 2/4
K: D
A F E F [I:setbarnb 1]| 
A4 | 
d2f2 | 
e d c B | 
A F E F | 
A2d B | 
dA2d | 
A4 | 
A F E F | 
A4 | 
e2d2 | 
c BA2 | 
A2F2 | 
A d F E | 
DD2E | 
D4 | 
dA2B | 
A4 | 
A F E F | 
A4 | 
e2d2 | 
c BA2 | 
A2F2 | 
A B F E | 
DD2E | 
D4 |]  



